X:1
T:Title
%%score { ( 1 3 ) | ( 2 4 ) }
L:1/8
Q:1/4=96
M:2/4
K:G
V:1 treble nm="Grand Piano"
V:3 treble 
V:2 bass 
V:4 bass 
V:1
 [DB]2 [CA][B,G] | [CE]2 [EG]2 | [GB]2 [Gd]2 | [Ad]4 | [Bd]2 [Ac][GB] | [B,G]2 [GB]2 | B4 | [Ec]4 | %8
w: S.~B.~Ellenberger * *||||||||
 [Bd][ce] [Bd][ce] | [Bd]2 [GB]2 | [DB][Ec] [DB]c | B2 G2 | B2 [Ec]e | d2 F2 | [B,G]4- | %15
w: |||||||
 [B,G]2 z2 | d3 c | B/A/G/A/ [DB]/[CA]/[B,G]/[CA]/ | [DB]2 [Dd]2 | [Dd]4 | [Bd]4 | [Ac]4 | B4 | %23
w: ||||||||
 c4 | [Bd][ce] [Bd][ce] | [Bd][ce] [Bd]/[Ac]/[DB]/[CA]/ | [B,G][CA] [DB][Ec] | [Dd]3 [Bd] | dc BG | %29
w: ||||||
 BB [Ec]e | dd FF | [B,G]4 |] %32
w: |||
V:2
 [G,,G,]2 [G,,G,][G,,G,] | [C,G,]2 [C,G,]2 | [G,,G,]2 [B,,G,]2 | [D,F,]4 | %4
 [G,,G,]2 [G,,G,][G,,G,] | G,,2 [G,,G,]2 | G,2- [G,-=F]2 | [C,G,]4 | [G,,G,]2 [G,,G,][G,,G,] | %9
 [G,,G,]2 [G,,G,]2 | [G,,G,]2 z E | [G,D]2 [G,B,D]2 | [G,D]2 z C | [D,G,B,]2 [D,A,C]2 | [G,,G,]4- | %15
 [G,,G,]2 z2 | [G,B,D]3 [G,A,D] | [G,D]/[G,C]/[G,B,]/[G,C]/ [G,,G,]/[G,,G,]/[G,,G,]/[G,,G,]/ | %18
 [G,,G,]2 [B,,G,]2 | [D,F,]4 | [G,,G,]/[G,,G,]/[G,,G,]/[G,,G,]/ [G,,G,][G,,G,] | %21
 [D,F,D][D,F,] [D,F,]2 | [G,,G,]/[G,,G,]/[G,,G,]/[G,,G,]/ [G,,G,][G,,G,] | [C,G,]C, C,2 | %24
 G,G, G,G, | [G,,G,][G,,G,] [G,,G,]/[G,,G,]/[G,,G,]/[G,,G,]/ | [G,,G,][G,,G,] [G,,G,][G,,G,] | %27
 [D,F,]3 G, | [G,B,G][G,A,D] [G,D][G,B,D] | [G,D][K:bass][G,D] [C,G,][C,G,C] | %30
 [D,G,B,][D,G,B,] [D,A,C][D,A,C] | [G,,G,]4 |] %32
V:3
 x4 | x4 | x4 | x4 | x4 | x4 | G2 z2 | x4 | x4 | x4 | x4 | x4 | x4 | x4 | x4 | x4 | x4 | x4 | x4 | %19
 x4 | D/D/D/D/ DD | z D D2 | D/D/D/D/ =FF | E[G,E] [G,E]2 | x4 | x4 | x4 | x4 | x4 | x4 | x4 | %31
 x4 |] %32
V:4
 x4 | x4 | x4 | x4 | x4 | x4 | G,,4 | x4 | x4 | x4 | z2 [G,,G,]2 | x4 | z2 [C,G,]2 | x4 | x4 | x4 | %16
 x4 | x4 | x4 | x4 | x4 | x4 | x4 | x4 | x4 | x4 | x4 | x4 | x4 | x[K:bass] x3 | x4 | x4 |] %32

